X:1
T:C Major Jacob French, 1789
T:Thomas Ken, 1695 88. 88. (L. M.)
T:Devotion
T:Transcribed from The American Harmony, 1793
%%score [ 1 2 3 4 ]
L:1/8
Q:1/4=150
M:4/4
K:C
V:1 treble nm="Treble" snm="Tr."
V:2 treble nm="Counter" snm="C."
V:3 treble-8 nm="Tenor" snm="T."
V:4 bass nm="Bass" snm="B."
V:1
 c4 | e4 c4 | e4 (g2 e2) | c4 c4 | B4 d4 | e4 f4 | g4 (ed c2) | (d2 c2) B4 | c6 z2 | z8 | %10
w: A-|wake, my|soul, and *|with the|sun Thy|dai- ly|task of * *|du- * ty|run.||
 z4 z2 ed | c2 cd ed cB | c2 e2 d2 c2 | B2 A2 B2 B2 | c2 c2 fe d2 | ef g2 c2 c2 | d2 ef g2 e2 | %17
w: Shake *|off dull * sloth * and *|ear- ly rise, To|pay the mor- ning|sac- ri- fice, * To|pay * the mor- ning|sac- ri- * fice, the|
 c2 f2 e2 d2 | e8 |: z8 | g4 g2 g2 | g2 e2 c2 c2 | d2 e2 e2 d2 | c2 c2 (g2 e2 | c4) (B2 A2) | G8 | %26
w: mor- ning sac- ri-|fice.||Wake, and lift|thy- self up, my|heart, And with the|an- gels bear~ _|_ thy~ _|part,|
 z4 e4 | c2 c2 d2 de | f2 f2 g2 e2 | f2 f>e d2 ed | c6 B2 | c8 | d2 dd c2 c2 | f2 f2 e4 | z8 | z8 | %36
w: Who|all night long un- *|wea- ried sing, un-|wea- ried * sing, un- *|wea- ried|sing,|Glo- ry to the e-|ter- nal King.|||
 z4 (d>edc | B>cBA GA) B2 | c2 e2 d2 B2 | (cdef g4) | c4 (e4 | f3 e d2 G2) | c2 z2 c2 cc | %43
w: Glo- * * *|* * * * * * ry,|Glo- ry, Glo- ry,|Glo- * * * *|ry, Glo-||ry, Glo- ry to|
 c2 c2 g2 f2 | e8 :| %45
w: the e- ter- nal|King.|
V:2
 E4 | G4 G4 | c4 G4 | A4 G4 | G4 G4 | G4 F4 | E4 (E2 A2) | A4 G4 | G6 z2 | z8 | z8 | z4 z2 EF | %12
w: A-|wake, my|soul, and|with the|sun Thy|dai- ly|task of *|du- ty|run.|||Shake *|
 G2 G2 A2 G2 | GF EF G2 GF | EF G2 A2 G2 | c2 B2 A4- | A2 c2 B2 G2 | A2 A2 G2 G2 | G8 |: z8 | z8 | %21
w: off dull sloth and|ear- * ly * rise, To *|pay * the mor- ning|sac- ri- fice,~|_ To pay the|mor- ning sac- ri-|fice.|||
 G4 G2 A2 | B2 B2 c2 BA | G2 A2 B2 cB | A2 A2 G2 ^F2 | G8- | G4 z4 | E4 G2 G2 | A2 A2 G2 G2 | %29
w: Wake, and lift|thy- self up, my *|heart, and with the *|an- gels bear thy|part,~|_|Who all night|long un- wea- ried|
 A4 G2 GG | G2 G2 G2 GF | E8 | z8 | z8 | (G>AGF E2) E2 | A2 AA A2 A2 | G2 G2 G4 | G4 G4 | z8 | %39
w: sing, un- wea- ried|sing, un- wea- ried *|sing,|||Glo- * * * * ry,|Glo- ry to the e-|ter- nal King.|Glo- ry,||
 c4 B4 | A4 G4 | ^F4 G4 | GG z2 G2 EE | A2 A2 G2 G2 | G8 :| %45
w: Glo- ry,|Glo- ry,|Glo- ry,|Glo- ry, Glo- ry to|the e- ter- nal|King.|
V:3
 G4 | c4 e4 | g4 (e2 c2) | f4 e4 | d4 d4 | (c3 B) A4 | G4 (cd e2) | (f2 e2) d4 | c6 z2 | z4 z2 Bc | %10
w: A-|wake, my|soul, and *|with the|sun Thy|dai- * ly|task of * *|du- * ty|run.|Shake *|
 d2 d2 d2 cB | cd ef g3 f | e2 c2 f2 e2 | d2 c2 d2 ef | g2 e2 c2 B2 | c2 de f4- | f2 g2 e2 c2 | %17
w: off dull sloth and *|ear- * ly * rise, To|pay the mor- ning|sac- ri- fice, To *|pay the mor- ning|sac- ri- * fice,~|_ To pay the|
 f2 d2 c2 B2 | c8 |: z8 | e4 d2 g2 | e2 c2 e2 f2 | g6 f2 | e2 c2 e2 g2 | (f2 e2 d2) c2 | d8 | %26
w: mor- ning sac- ri-|fice.||Wake, and lift|thy- self up, my|heart, and|with the an- gels|bear~ _ _ thy|part.|
 z4 c4 | A2 A2 G2 G2 | c2 c2 c2 Bc | d2 d2 d2 cd | e2 e2 e2 d2 | g2 g2 g4 | f2 ff e2 e2 | %33
w: Who|all night long un-|wea- ried sing, un- *|wea- ried sing, un- *|wea- ried sing, un-|wea- ried sing,|Glo- ry to the e-|
 d2 d2 c4 | (f>gfe d2) d2 | c4 c4 | (d>edc B2) c2 | d4 d4 | (e2 c2 f2) d>f | (e2 c>e d2) G2 | %40
w: ter- nal King.|Glo- * * * * ry,|glo- ry,|Glo- * * * * ry,|Glo- ry|Glo- * * ry, *|Glo- * * * ry,|
 (c2 A>c B3 c | d4) d4 | e2 dc e2 g2 | (f2 e2) d4 | c8 :| %45
w: Glo- * * * *|* ry,|Glo- ry to the e-|ter- * nal|King.|
V:4
 C,4 | C,4 C,4 | C,4 E,4 | F,4 C,4 | G,4 G,4 | C,4 D,4 | E,4 A,4 | F,4 G,4 | C,6 E,F, | %9
w: A-|wake, my|soul, and|with the|sun Thy|dai- ly|task of|du- ty|run; Shake *|
 G,2 G,2 G,2 G,2 | G,2 D,2 G,2 E,2 | F,2 E,D, C,2 C,2 | C,2 C,2 D,2 E,F, | G,2 A,2 G,2 E,2 | %14
w: off dull sloth and|ear- ly rise, To|pay the * mor- ning|sac- ri- fice; Shake *|off dull sloth and|
 C,2 E,2 F,2 G,2 | A,2 G,2 (F,3 E, | D,2) C,D, (E,4 | F,4) G,4 | C,8 |: G,4 C,2 G,2 | %20
w: ear- ly rise, To|pay the mor- *|* ning * sac-|* ri-|fice.|Wake, and lift|
 C2 C2 G,2 G,2 | C6 A,2 | G,2 E,2 C,2 D,2 | (E,2 F,2 E,2 C,2 | F,4) (G,2 A,2) | G,8- | G,4 z4 | %27
w: thy- self up, my|heart, And|with the an- gels|bear~ _ _ _|_ thy~ _|part.~|_|
 z4 G,4 | F,2 F,2 E,2 E,2 | D,2 D,2 G,4 | C2 CC C2 G,2 | C,2 C,2 C,4 | z8 | z8 | z8 | F,4 F,4 | %36
w: Who|all night long un-|wea- ried sing,|Glo- ry to the e-|ter- nal King.||||Glo- ry,|
 G,8 | G,8 | (C4 B,4 | A,4 G,4 | F,4 E,4 | D,4) G,4 | C2 G,F, E,2 C,2 | F,4 G,4 | C,8 :| %45
w: Glo-|ry,|Glo- *|||* ry,|Glo- ry to the e-|ter- nal|King.|

